X:1
T:Title
%%score { ( 1 3 ) | 2 }
L:1/8
Q:1/4=92
M:6/8
K:G
V:1 treble nm="Grand Piano"
V:3 treble 
V:2 bass 
V:1
 [DB][DB][DB] [DB]>[DA][DG] | [CE][DF][EG] E D2 | GGG GFG | [FA]2 [GB] .[FA]3 | %4
w: Chas.~H.~Gabriel * * * * *||||
 [DB][DB][DB] [DB]>[DA][DG] | [CE][DF][EG] E D2 | GFG A<[DGB][CDA] | [B,DG]6 | B3 z3 | z G2 z3 | %10
w: ||||||
 AAA AGA | Bdd d2 c | B3 z3 | z G2- G3 | GFG A<[DGB][CDA] |[M:5/8] [B,DG]-[B,DG]- [B,DG]3 |] %16
w: ||||||
V:2
 [G,,G,][G,,G,][G,,G,] [G,,G,]>[A,,F,][B,,G,] | [C,G,][C,G,][C,G,] [G,C] [G,B,]2 | %2
 [G,B,D][G,B,D][G,B,D] [B,D][A,CD][G,B,D] | [D,D]2 [D,D] .[D,D]3 | %4
 [G,,G,][G,,G,][G,,G,] [G,,G,]>[A,,F,][B,,G,] | [C,G,][C,G,][C,G,] [G,C] [G,B,]2 | %6
 [D,B,D][D,A,D][D,B,D] [D,CD]<D,D, | G,,6 | [G,,G,][G,,G,][G,,G,] [B,,G,]3 | %9
 [C,G,][C,C][C,C] [E,C]3 | [D,F,D][D,F,D][D,F,D] [D,F,D][D,E,D][D,F,D] | %11
 [G,D][G,B,D][G,CA] [G,B,G]2 [G,E] | [G,,G,][G,,G,][G,,G,] [B,,G,]3 | [C,G,][C,C][C,C] E,3 | %14
 [D,B,D][D,A,D][D,B,D] [D,CD]<D,D, |[M:5/8] G,,-G,,- G,,3 |] %16
V:3
 x6 | x6 | x6 | x6 | x6 | x6 | x6 | x6 | DDD [DG]3 | [CE]EE G3 | x6 | x6 | DDD .[DG]3 | [CE]EE C3 | %14
 x6 |[M:5/8] x5 |] %16

